X:1
T:24 Arie Antiche
T:Caro mio ben
T:Caro Mio Ben
T:(24 Arie Antiche) Arietta
T:Tommaso Giordani (1733-1806) misattributed to Giuseppe Giordani (Giordanello)(1744-1798) Alessandro Parisotti (1853-1913)
T:Low voices
T:Creative Commons copyright waiver (CC0 1.0 Universal)
T:Creative Commons copyright waiver (CC0 1.0 Universal)
T:Creative Commons copyright waiver (CC0 1.0 Universal)
T:Creative Commons copyright waiver (CC0 1.0 Universal)
T:Creative Commons copyright waiver (CC0 1.0 Universal)
C:Tomasso Giordani (1766-1806)
Z:Creative Commons copyright waiver (CC0 1.0 Universal)
%%score 1 { ( 2 3 6 ) | ( 4 5 ) }
L:1/8
Q:1/4=60
M:4/4
K:C
V:1 treble nm="Voice"
V:2 treble nm="Piano"
V:3 treble 
V:6 treble 
V:4 bass 
V:5 bass 
V:1
"^Larghetto" z4[Q:1/4=49] | z8 | z8 | z8 | z4!p! c2 B3/2 A/ | G4 A2 G3/2 F/ | E4 F2 E D | %7
w: ||||Ca- ro mio|ben, cre- di- mial|men, sen- za di|
 G4 (C2{DC} B,) C | (E2 D2) z4 | z4 A2 G3/2 F/ | E4 F2 E D | (Gc) (CF) (E2 D3/2) C/ | C4 z4 | z8 | %14
w: te lan- gui- sceil|cor, _|ca- ro mio|ben, sen- za di|te _ lan- * gui- * sceil|cor.||
 z4!p![Q:1/4=54] G2 A[Q:1/4=60] B |!<(! A4 A2 B c[Q:1/4=64] | %16
w: Il tuo fe-|del so- spi- rao-|
[Q:1/4=60] B4!<)!!f![Q:1/4=52] !>!d2 c B | (A^F) (Gc) B2 (A>G) | %18
w: gnor. Ces- sa, cru-|del, _ tan- * to ri- *|
!<(! G4!<)![Q:1/4=49] !>!A2!>(! G3/2 F/ | E2!>)! z2 G2 F E | %20
w: gor! Ces- sa, cru-|del, tan- to ri-|
 (E2 D2)!f!"^rit."[Q:1/4=46] !>!c2[Q:1/4=42] ^F[Q:1/4=40] F | %21
w: gor, _ tan- to ri-|
 (G4!ppp!"^a tempo"[Q:1/4=49] c2) B3/2 A/ |!<(! G4 A2 G3/2 F/!<)! | E4!mf![Q:1/4=46] F2 E D | %24
w: gor! Ca- ro mio|ben, cre- di- mial|men, sen- za di|
 (Gc) (CF)[Q:1/4=42] (E2 D3/2) C/ |[Q:1/4=46] C4!p![Q:1/4=48]{FG} A2 G3/2 F/ | %26
w: te _ lan- * gui- * sceil|cor, ca- ro mio|
 E4"^cresc."{FG} A2 G3/2 F/ | E2"^cresc." z2 c2[Q:1/4=46] B A | %28
w: ben, cre- di- mial-|men sen- za di|
!f![Q:1/4=39]!>(! (!fermata!G4!>)![Q:1/4=40] c2)[Q:1/4=42] z2 |!p!!<(! E4 D3 C!<)! | C4 z4 | %31
w: te _|lan- gui- sceil|cor.|
[Q:1/4=46] z8[Q:1/4=42] | z8 |] %33
w: ||
V:2
"_dolce" (!>!c2 B>A | G4) (!>![FA]2 [EG]>[DF] | E4) (!>!F2 ED | Gc C[DF] !>!E2 D>C | %4
 [G,C]4)!p! ([CE]2 [CF]2 | G4) ([FA]2 [EG]>[DF] | E4) (F2 ED | G4) (C4- | C2 B,2)!f! (!>!c2 B>A | %9
 G4)!p! (!>![FA]2 [EG]>[DF] | E4) (!>!F2 ED | G2) (F2 E2 D2 | C)(Gce)!f! (!>!g2 f>e | %13
 [Bd])([GBg][Gc][Fcf])!f! (!>!e2!>(! d>c | c)(GEC)!>)!!p! [G,DG](.[G,DG].[B,DG].[B,DG]) | %15
!<(! ([A,DG][A,DG][A,D^F][A,DF] [CDA][CDA][CFA][CFA]) | %16
 ([B,DA]!<)![B,DA][B,DG][B,DG])!f! ([DG][DG][D^F][DG]) | %17
 ([D^FA][DFA][DG][CEG]!>(! [B,DG][B,DG][A,DG]!>)![A,CG] | [B,DG])(B,DG) (A2 G>F | %19
 [CE])(G,CE G2 FE | [CE]2 [B,D])G!f! (^F2 c2) | (BAGF)!ppp!"^a tempo" (E2 F2 | %22
!<(! [CG])(G,CG) ([FA]2 [EG]>[DF]!<)! | [CE])(A,CE)!mf! ([A,CF]2 ED | [G,CG]2 [A,CF]2 E2 D2 | %25
!<(! C)(EF!<)!G)!p! (.[B,FA].[B,FA].[DFG].[DFG]) | %26
 ([CEG][CEG]!>![CGc]!>![CGc])"_cresc." ([B,FA][B,FA][DFG][DFG]) | %27
 ([CEG][CEG]"_cresc."!>![CGc]!>![CGc]) ([CEc]!<(![CEc][CEB]!<)![CFA]) | [CG]4 z2 !tenuto![A,CF]2 | %29
 ([G,CE]4 [F,D]4 | [E,G,C])(Gce)!f! (!>!g2 f>e | dgcf) !>!e2 (d>c | [EGc]4) z4 |] %33
V:3
 [CE]2 [CF]2 | C4 C2 B,2 | C4 [A,C]2 B,2 | C2 A,2 C2 CB, | x8 | C4 C2 B,2 | C4 [A,C]2 B,2 | %7
 [G,C]4 ^F,4 | G,4 [CE]2 [CF]2 | x4 C2 B,2 | C4 [A,C]2 B,2 | [G,C]2 [A,C]2 C3 B, | x4 [Gc]2 [Ac]2 | %13
 x4 [Gc]2 cB | [EG]2 x6 | x8 | x8 | x8 | x4 [B,=F]2 D2 | x4 C2 D2 | x4 C4 | [DG]2 z2 C2 C2 | %22
 x4 C2 B,2 | x6 B,2 | x4 C3 B, | x8 | x8 | x8 | x8 | x4 C2 B,2 | x4 ([Gc]2 [Ac]2 | %31
 B[GB][Gc][Fc]) [Gc]2 c!ff!B | x8 |] %33
V:4
 (C,2 D,2 | E,4) (F,2 G,2 | A,4) D,2 (G,F,) | E,2"^largamente" F,2 G,2 [G,,F,]2 | %4
 [C,E,]4"^dolce" (C,2 D,2 | E,4) (F,2 G,2 | A,4) (D,2 G,F, | E,4) [A,,D,]4 | (E,2 D,2) (C,2 D,2 | %9
 E,4) (F,2 G,2 | A,4) (D,2 G,F, | E,2 F,2 G,2- [G,,F,G,]2) | [C,E,G,]4 (E,2 F,2 | %13
 G,)(F,E,A,) (!>!G,2 G,,2 | C,4) (B,,2 G,,2 | D,,2) (D,2 ^F,2 D,2 | G,2) G,,2 (!>!B,2 A,G, | %17
 C,2) (B,,C, D,4) | G,4 (D,2 B,,2 | C,2) z2 (E,2 F,2 | G,2 G,,2)"^rit." (A,,4 | G,,4) (C,,2 D,,2 | %22
 E,,4) (F,,2 G,,2 | A,,4) (D,2 G,F, | E,2 F,2 G,4 | A,4) (D,2 B,,2 | C,2 E,2) (D,2 B,,2 | %27
 C,2 E,2) ([A,,A,]2 [G,,G,][F,,F,] |"^colla voce" [E,,E,]4) z2!p! !tenuto![F,,F,]2 | %29
 ([G,,G,]4 (G,,4) | C,4) ([E,,E,]2 [F,,F,]2 | %31
 [G,,G,][F,,F,][E,,E,][A,,A,])"^rit." ([G,,G,]2 G,,2) | !>!C,2 C,,2 z4 |] %33
V:5
 x4 | x8 | x8 | x8 | x8 | x8 | x8 | x8 | G,,4 x4 | x8 | x8 | x8 | x8 | x8 | x8 | x8 | x8 | x8 | %18
 x8 | x8 | x8 | x8 | x8 | x8 | x8 | x8 | x8 | x8 | x8 | x8 | x8 | x8 | x8 |] %33
V:6
 x4 | x8 | x8 | x8 | x8 | x8 | x8 | x8 | x8 | x8 | x8 | x8 | x8 | x6 F2 | x8 | x8 | x8 | x8 | x8 | %19
 x8 | x8 | x8 | x8 | x8 | x8 | x8 | x8 | x8 | x8 | x8 | x8 | x6 F2 | x8 |] %33

